X:141
T:Voulez vous danser Madamoiselle TS.141
T:Oats & Beans & Barley Grow,aka TS.141
T:Ninepins,aka TS.141
M:6/8
L:1/8
Q:3/8=120
S:Thomas Sands' MS,1810,Lincolnshire
R:jig
O:England;Lincolnshire
Z:vmp.Ruairidh Greig, 2011
K:C
G|e2ee2e|d^cd=c2c|B2cd2B|c2de2G|
e2ee2e|d^cd =cde|f2e dec|BABc2:|
|:B/c/|d2dB2G|cded2B/c/|d2dB2G|cded2d|
g2g g^fg|^fee edd|dcB Adc|"rep.added"BcA"Da Capo"G2:|]

